icons/note-pinned-filled.svg

<svg xmlns="http://www.w3.org/2000/svg" viewBox="0 0 24 24" fill="currentColor">
  <path d="M12 3.25c-.4142 0-.75.33579-.75.75s.3358.75.75.75.75-.33579.75-.75-.3358-.75-.75-.75Zm.75 2.87197c.8739-.30888 1.5-1.14231 1.5-2.12197 0-1.24264-1.0074-2.25-2.25-2.25S9.75 2.75736 9.75 4c0 .97966.6261 1.81309 1.5 2.12197V7.5c0 .41421.3358.75.75.75s.75-.33579.75-.75V6.12197ZM8 6.25c-1.78579 0-3.25 1.46421-3.25 3.25v8c0 1.7858 1.46421 3.25 3.25 3.25h8c1.7858 0 3.25-1.4642 3.25-3.25v-8c0-1.78579-1.4642-3.25-3.25-3.25-.4142 0-.75-.33579-.75-.75s.3358-.75.75-.75c2.6142 0 4.75 2.13579 4.75 4.75v8c0 2.6142-2.1358 4.75-4.75 4.75H8c-2.61421 0-4.75-2.1358-4.75-4.75v-8c0-2.61421 2.13579-4.75 4.75-4.75.41421 0 .75.33579.75.75s-.33579.75-.75.75ZM7.25 12c0-.4142.33579-.75.75-.75h8c.4142 0 .75.3358.75.75s-.3358.75-.75.75H8c-.41421 0-.75-.3358-.75-.75ZM8 15.25c-.41421 0-.75.3358-.75.75s.33579.75.75.75h8c.4142 0 .75-.3358.75-.75s-.3358-.75-.75-.75H8Z"/>
</svg>

<svg width="24" height="24" viewBox="0 0 24 24" fill="none" xmlns="http://www.w3.org/2000/svg">
<path fill-rule="evenodd" clip-rule="evenodd" d="M12 3.25C11.5858 3.25 11.25 3.58579 11.25 4C11.25 4.41421 11.5858 4.75 12 4.75C12.4142 4.75 12.75 4.41421 12.75 4C12.75 3.58579 12.4142 3.25 12 3.25ZM12.75 6.12197C13.6239 5.81309 14.25 4.97966 14.25 4C14.25 2.75736 13.2426 1.75 12 1.75C10.7574 1.75 9.75 2.75736 9.75 4C9.75 4.97966 10.3761 5.81309 11.25 6.12197V7.5C11.25 7.91421 11.5858 8.25 12 8.25C12.4142 8.25 12.75 7.91421 12.75 7.5V6.12197ZM8 6.25C6.21421 6.25 4.75 7.71421 4.75 9.5V17.5C4.75 19.2858 6.21421 20.75 8 20.75H16C17.7858 20.75 19.25 19.2858 19.25 17.5V9.5C19.25 7.71421 17.7858 6.25 16 6.25C15.5858 6.25 15.25 5.91421 15.25 5.5C15.25 5.08579 15.5858 4.75 16 4.75C18.6142 4.75 20.75 6.88579 20.75 9.5V17.5C20.75 20.1142 18.6142 22.25 16 22.25H8C5.38579 22.25 3.25 20.1142 3.25 17.5V9.5C3.25 6.88579 5.38579 4.75 8 4.75C8.41421 4.75 8.75 5.08579 8.75 5.5C8.75 5.91421 8.41421 6.25 8 6.25ZM7.25 12C7.25 11.5858 7.58579 11.25 8 11.25H16C16.4142 11.25 16.75 11.5858 16.75 12C16.75 12.4142 16.4142 12.75 16 12.75H8C7.58579 12.75 7.25 12.4142 7.25 12ZM8 15.25C7.58579 15.25 7.25 15.5858 7.25 16C7.25 16.4142 7.58579 16.75 8 16.75H16C16.4142 16.75 16.75 16.4142 16.75 16C16.75 15.5858 16.4142 15.25 16 15.25H8Z" fill="black"/>
</svg>
